src/actions/24/view-form.svg

<svg xmlns="http://www.w3.org/2000/svg" viewBox="0 0 24 24">
  <defs id="defs3051">
    <style type="text/css" id="current-color-scheme">
      .ColorScheme-Text {
        color:#363636;
      }
      </style>
  </defs>
 <path style="fill:currentColor;fill-opacity:1;stroke:none" 
     d="M 4 4 L 4 20 L 5 20 L 8 20 L 9 20 L 14 20 L 19 20 L 20 20 L 20 14 L 20 4 L 19 4 L 5 4 L 4 4 z M 15.625 5 L 17 5.8125 L 18.375 5 L 19 5.8125 L 17.3125 6.8125 L 17 7 L 16.6875 6.8125 L 15 5.8125 L 15.625 5 z M 5 8 L 19 8 L 19 14 L 19 19 L 14 19 L 9 19 L 8 19 L 5 19 L 5 8 z M 8 9 C 6.895431 9 6 9.8954 6 11 C 6 12.1046 6.895431 13 8 13 C 9.104569 13 10 12.1046 10 11 C 10 9.8954 9.104569 9 8 9 z M 8 10 C 8.552285 10 9 10.4477 9 11 C 9 11.5523 8.552285 12 8 12 C 7.447715 12 7 11.5523 7 11 C 7 10.4477 7.447715 10 8 10 z M 12 11 L 12 12 L 18 12 L 18 11 L 12 11 z M 6 14 L 6 18 L 9 18 L 10 18 L 10 17 L 10 14 L 6 14 z M 7 15 L 9 15 L 9 17 L 7 17 L 7 15 z M 12 16 L 12 17 L 14 17 L 18 17 L 18 16 L 14 16 L 12 16 z "
     class="ColorScheme-Text"
     />
</svg>

<svg xmlns="http://www.w3.org/2000/svg" viewBox="0 0 24 24">
    <path d="M4 4v16h16V4H4zm11.625 1L17 5.813 18.375 5l.625.813-1.687 1L17 7l-.312-.187-1.688-1L15.625 5zM5 8h14v11H5V8zm3 1a2 2 0 1 0 0 4 2 2 0 0 0 0-4zm0 1a1 1 0 1 1 0 2 1 1 0 0 1 0-2zm4 1v1h6v-1h-6zm-6 3v4h4v-4H6zm1 1h2v2H7v-2zm5 1v1h6v-1h-6z" style="fill:currentColor;fill-opacity:1;stroke:none;color:#050505;opacity:.7"/>
</svg>
